projeto-navi/src/images/knowledge 1.svg

<?xml version="1.0" encoding="UTF-8" standalone="no"?>
<svg
   xmlns:dc="http://purl.org/dc/elements/1.1/"
   xmlns:cc="http://creativecommons.org/ns#"
   xmlns:rdf="http://www.w3.org/1999/02/22-rdf-syntax-ns#"
   xmlns:svg="http://www.w3.org/2000/svg"
   xmlns="http://www.w3.org/2000/svg"
   xmlns:sodipodi="http://sodipodi.sourceforge.net/DTD/sodipodi-0.dtd"
   xmlns:inkscape="http://www.inkscape.org/namespaces/inkscape"
   inkscape:export-ydpi="96"
   inkscape:export-xdpi="96"
   inkscape:export-filename="C:\Users\jooao\Documents\Projeto-NAVI\projeto-navi\src\images\knowledge 1.png"
   inkscape:version="1.0 (4035a4fb49, 2020-05-01)"
   sodipodi:docname="knowledge 1.svg"
   id="svg25"
   version="1.1"
   fill="none"
   viewBox="0 0 96 96"
   height="96"
   width="96">
  <metadata
     id="metadata29">
    <rdf:RDF>
      <cc:Work
         rdf:about="">
        <dc:format>image/svg+xml</dc:format>
        <dc:type
           rdf:resource="http://purl.org/dc/dcmitype/StillImage" />
      </cc:Work>
    </rdf:RDF>
  </metadata>
  <sodipodi:namedview
     inkscape:current-layer="svg25"
     inkscape:window-maximized="1"
     inkscape:window-y="-8"
     inkscape:window-x="-8"
     inkscape:cy="34.849527"
     inkscape:cx="-1.8953039"
     inkscape:zoom="3.9627443"
     showgrid="false"
     id="namedview27"
     inkscape:window-height="705"
     inkscape:window-width="1366"
     inkscape:pageshadow="2"
     inkscape:pageopacity="0"
     guidetolerance="10"
     gridtolerance="10"
     objecttolerance="10"
     borderopacity="1"
     bordercolor="#666666"
     pagecolor="#ffffff" />
  <g
     id="g18"
     clip-path="url(#clip0)">
    <path
       style="fill:#3c9ae4;stroke:#3c9ae4;stroke-opacity:1;fill-opacity:1"
       id="path2"
       stroke-width="0.999543"
       stroke="#150542"
       fill="#3C9AE4"
       d="M57.9867 75.1242L57.8069 75.9907L58.6418 75.6972L85.0476 66.4157L84.8818 65.9442L85.0476 66.4157C85.8937 66.1182 86.7699 65.968 87.6526 65.968C91.9664 65.968 95.4779 69.4836 95.4777 73.8055C95.4777 76.7792 93.7484 79.5452 91.0751 80.8475L60.997 95.5003H0.521698V78.9545L5.67314 73.8032L5.67315 73.8032C10.9798 68.4964 18.0329 65.575 25.5376 65.575H50.2177C54.5922 65.575 58.1519 69.1347 58.1519 73.5092C58.1519 74.0629 58.0949 74.6029 57.9867 75.1242ZM59.8157 90.8774H59.931L60.0346 90.8269L89.0508 76.6916L88.832 76.2423L89.0509 76.6916C90.1482 76.1569 90.8551 75.0261 90.8549 73.8055C90.8549 71.8114 89.1851 70.5909 87.6524 70.5909C87.2902 70.5909 86.9294 70.6545 86.5804 70.7771L86.5803 70.7771L56.2348 81.4435H32.8507V76.8206H50.2175C52.0438 76.8206 53.5288 75.3358 53.5288 73.5094C53.5288 71.6831 52.0438 70.198 50.2175 70.198H25.5376C19.2695 70.198 13.3742 72.6398 8.94198 77.072L5.29097 80.7231L5.14459 80.8694V81.0764V90.3776V90.8774H5.64436H59.8157Z" />
    <path
       style="fill:none;stroke:#3c9ae4;stroke-opacity:1;stroke-width:3;stroke-miterlimit:4;stroke-dasharray:none"
       sodipodi:nodetypes="csccccsccsccccc"
       id="path4"
       stroke-width="0.999543"
       stroke="#150542"
       fill="#3c9ae4"
       d="m 34.5918,39.1091 c 1.6345,1.2923 2.5773,3.2113 2.5773,5.2648 v 7.1415 l 3.2955,6.8446 h 15.0705 l 3.2955,-6.8446 v -7.1235 c 0,-2.063 0.9464,-3.9918 2.5872,-5.2907 5.2217,-4.1336 8.215,-10.317 8.215,-16.9683 -2e-4,-11.9281 -9.7051,-21.633128 -21.6331,-21.633128 -0.2785,0 -0.5613,0.005492 -0.8409,0.015944 C 18.66042,4.6200942 25.417304,33.276772 34.5918,39.1091 Z m 0,0 C 29.3798,34.9882 26.3829,28.8212 26.3667,22.1858 26.3532,16.5775 28.4969,11.2453 32.406,7.16892" />
    <path
       style="fill:#3c9ae4;stroke:#3c9ae4;stroke-opacity:1;fill-opacity:1"
       id="path6"
       stroke-width="0.999543"
       stroke="#150542"
       fill="#3C9AE4"
       d="M12.3864 19.8692H19.7444V24.492H12.3864V19.8692Z" />
    <path
       style="fill:#3c9ae4;stroke:#3c9ae4;stroke-opacity:1;fill-opacity:1"
       id="path8"
       stroke-width="0.999543"
       stroke="#150542"
       fill="#3C9AE4"
       d="M16.0015 6.3769L18.3129 2.37348L24.685 6.05248L22.3735 10.0559L16.0015 6.3769Z" />
    <path
       style="fill:#3c9ae4;stroke:#3c9ae4;stroke-opacity:1;fill-opacity:1"
       id="path10"
       stroke-width="0.999543"
       stroke="#150542"
       fill="#3C9AE4"
       d="M16.001 37.9837L22.3731 34.3047L24.6845 38.3081L18.3125 41.9871L16.001 37.9837Z" />
    <path
       style="fill:#3c9ae4;stroke:#3c9ae4;stroke-opacity:1;fill-opacity:1"
       id="path12"
       stroke-width="0.999543"
       stroke="#150542"
       fill="#3C9AE4"
       d="M76.2545 19.8692H83.6125V24.492H76.2545V19.8692Z" />
    <path
       style="fill:#3c9ae4;stroke:#3c9ae4;stroke-opacity:1;fill-opacity:1"
       id="path14"
       stroke-width="0.999543"
       stroke="#150542"
       fill="#3C9AE4"
       d="M71.3115 6.05206L77.6835 2.37305L79.995 6.37647L73.6229 10.0555L71.3115 6.05206Z" />
    <path
       style="fill:#3c9ae4;stroke:#3c9ae4;stroke-opacity:1;fill-opacity:1"
       id="path16"
       stroke-width="0.999543"
       stroke="#150542"
       fill="#3C9AE4"
       d="M71.3125 38.311L73.624 34.3076L79.996 37.9866L77.6845 41.99L71.3125 38.311Z" />
  </g>
  <defs
     id="defs23">
    <clipPath
       id="clip0">
      <rect
         id="rect20"
         fill="white"
         height="96"
         width="96" />
    </clipPath>
  </defs>
  <path
     id="path854"
     d="M 37.347856,48.918367 C 58.545287,48.792192 58.545287,48.792192 58.545287,48.792192"
     style="fill:none;stroke:#3c9ae4;stroke-width:3;stroke-linecap:butt;stroke-linejoin:miter;stroke-opacity:1;stroke-miterlimit:4;stroke-dasharray:none" />
</svg>

<svg width="96" height="96" viewBox="0 0 96 96" fill="none" xmlns="http://www.w3.org/2000/svg">
<g clip-path="url(#clip0)">
<path d="M57.9867 75.1242L57.8069 75.9907L58.6418 75.6972L85.0476 66.4157L84.8818 65.9442L85.0476 66.4157C85.8937 66.1182 86.7699 65.968 87.6526 65.968C91.9664 65.968 95.4779 69.4836 95.4777 73.8055C95.4777 76.7792 93.7484 79.5452 91.0751 80.8475L60.997 95.5003H0.521698V78.9545L5.67314 73.8032L5.67315 73.8032C10.9798 68.4964 18.0329 65.575 25.5376 65.575H50.2177C54.5922 65.575 58.1519 69.1347 58.1519 73.5092C58.1519 74.0629 58.0949 74.6029 57.9867 75.1242ZM59.8157 90.8774H59.931L60.0346 90.8269L89.0508 76.6916L88.832 76.2423L89.0509 76.6916C90.1482 76.1569 90.8551 75.0261 90.8549 73.8055C90.8549 71.8114 89.1851 70.5909 87.6524 70.5909C87.2902 70.5909 86.9294 70.6545 86.5804 70.7771L86.5803 70.7771L56.2348 81.4435H32.8507V76.8206H50.2175C52.0438 76.8206 53.5288 75.3358 53.5288 73.5094C53.5288 71.6831 52.0438 70.198 50.2175 70.198H25.5376C19.2695 70.198 13.3742 72.6398 8.94198 77.072L5.29097 80.7231L5.14459 80.8694V81.0764V90.3776V90.8774H5.64436H59.8157Z" fill="#3C9AE4" stroke="#150542" stroke-width="0.999543"/>
<path d="M34.5918 39.1091C36.2263 40.4014 37.1691 42.3204 37.1691 44.3739V51.5154L40.4646 58.36H55.5351L58.8306 51.5154V44.3919C58.8306 42.3289 59.777 40.4001 61.4178 39.1012C66.6395 34.9676 69.6328 28.7842 69.6328 22.1329C69.6326 10.2048 59.9277 0.499772 47.9997 0.499772C47.7212 0.499772 47.4384 0.505264 47.1588 0.515716L34.5918 39.1091ZM34.5918 39.1091C29.3798 34.9882 26.3829 28.8212 26.3667 22.1858C26.3532 16.5775 28.4969 11.2453 32.406 7.16892M34.5918 39.1091L32.406 7.16892M32.406 7.16892C36.3173 3.0903 41.5556 0.728802 47.1585 0.515727L32.406 7.16892ZM52.3158 53.7371H52.6299L52.7661 53.4541L54.1579 50.5634L54.2073 50.4607V50.3466V47.1851V46.6854H53.7076H42.2916H41.7918V47.1851V50.3466V50.4607L41.8413 50.5634L43.233 53.4541L43.3693 53.7371H43.6833H52.3158ZM47.3345 5.13538L47.3343 5.13539C42.9346 5.30247 38.8172 7.16274 35.7427 10.3687C32.6683 13.5745 30.979 17.7683 30.9898 22.1748C31.0026 27.3906 33.3614 32.2425 37.4591 35.4826L37.7691 35.0905L37.4591 35.4826C39.486 37.0851 40.8716 39.2622 41.4647 41.6815L41.5581 42.0623H41.9501H54.053H54.4447L54.5383 41.6819C55.134 39.2606 56.5207 37.0814 58.5483 35.4764L58.2381 35.0845L58.5483 35.4764C62.6536 32.2265 65.0097 27.3614 65.0097 22.1327C65.0097 12.753 57.3795 5.12266 47.9997 5.12266C47.779 5.12266 47.5552 5.1271 47.3345 5.13538Z" fill="#3C9AE4" stroke="#150542" stroke-width="0.999543"/>
<path d="M12.3864 19.8692H19.7444V24.492H12.3864V19.8692Z" fill="#3C9AE4" stroke="#150542" stroke-width="0.999543"/>
<path d="M16.0015 6.3769L18.3129 2.37348L24.685 6.05248L22.3735 10.0559L16.0015 6.3769Z" fill="#3C9AE4" stroke="#150542" stroke-width="0.999543"/>
<path d="M16.001 37.9837L22.3731 34.3047L24.6845 38.3081L18.3125 41.9871L16.001 37.9837Z" fill="#3C9AE4" stroke="#150542" stroke-width="0.999543"/>
<path d="M76.2545 19.8692H83.6125V24.492H76.2545V19.8692Z" fill="#3C9AE4" stroke="#150542" stroke-width="0.999543"/>
<path d="M71.3115 6.05206L77.6835 2.37305L79.995 6.37647L73.6229 10.0555L71.3115 6.05206Z" fill="#3C9AE4" stroke="#150542" stroke-width="0.999543"/>
<path d="M71.3125 38.311L73.624 34.3076L79.996 37.9866L77.6845 41.99L71.3125 38.311Z" fill="#3C9AE4" stroke="#150542" stroke-width="0.999543"/>
</g>
<defs>
<clipPath id="clip0">
<rect width="96" height="96" fill="white"/>
</clipPath>
</defs>
</svg>
